Adwaita++/actions/22/process-stop.svg

<svg height="22" viewBox="0 0 22 22" width="22" xmlns="http://www.w3.org/2000/svg">
  <path d="m5.2167969 1-.3125.28125-3.625 3.625-.28125002.3125v5.5625l.28125002.3125 3.625 3.625.3125.28125h5.5625001l.3125-.28125 3.625-3.625.28125-.3125v-5.5625l-.28125-.3125-3.625-3.625-.3125-.28125zm.78125 2h4l3.0000001 3v4l-3.0000001 3h-4l-3-3v-4zm.4375 1-2.4375 2.4375v3.125l2.4375 2.4375h3.125l2.4375001-2.4375v-3.125l-2.4375001-2.4375z" fill="#444" transform="translate(3 3)"/>
</svg>

<svg xmlns="http://www.w3.org/2000/svg" width="22" height="22" viewBox="0 0 22 22">
 <defs>
  <style id="current-color-scheme" type="text/css">
   .ColorScheme-Text { color:#444444; } .ColorScheme-Highlight { color:#4285f4; }
  </style>
 </defs>
 <path style="fill:currentColor" class="ColorScheme-Text" d="M 5.2167969 1 L 4.9042969 1.28125 L 1.2792969 4.90625 L 0.99804688 5.21875 L 0.99804688 10.78125 L 1.2792969 11.09375 L 4.9042969 14.71875 L 5.2167969 15 L 10.779297 15 L 11.091797 14.71875 L 14.716797 11.09375 L 14.998047 10.78125 L 14.998047 5.21875 L 14.716797 4.90625 L 11.091797 1.28125 L 10.779297 1 L 5.2167969 1 z M 5.9980469 3 L 9.9980469 3 L 12.998047 6 L 12.998047 10 L 9.9980469 13 L 5.9980469 13 L 2.9980469 10 L 2.9980469 6 L 5.9980469 3 z M 6.4355469 4 L 3.9980469 6.4375 L 3.9980469 9.5625 L 6.4355469 12 L 9.5605469 12 L 11.998047 9.5625 L 11.998047 6.4375 L 9.5605469 4 L 6.4355469 4 z" transform="translate(3 3)"/>
</svg>
